outputs/icons/maps/ship_round.svg

<svg xmlns="http://www.w3.org/2000/svg" width="1200" height="1200" fill="none"><g fill="#000" clip-path="url(#a)"><path d="M506.135 100h187.5c17.26 0 31.25 13.991 31.25 31.25s-13.99 31.25-31.25 31.25h-187.5c-17.26 0-31.251-13.991-31.251-31.25S488.875 100 506.135 100M713.97 946.865c45-17.8 98.975-13.05 144.29 3.935 55.925 20.96 121.725 24.9 170.525 24.075 37.65-.635 71.1 28.795 71.1 66.455 0 30.78-22.69 56.745-53.445 58.025-49.645 2.065-125.175.05-188.175-23.56-45.315-16.98-99.295-21.73-144.29-3.93-37.355 14.78-76.665 23.105-113.975 23.105-37.225 0-76.44-8.285-113.722-23-45.125-17.81-99.297-12.985-144.747 3.98-62.899 23.48-138.412 25.465-188.061 23.4-30.769-1.28-53.47-27.255-53.47-58.05 0-37.65 33.424-67.075 71.067-66.43 48.809.83 114.621-3.07 170.489-23.935 45.434-16.97 99.585-21.79 144.695-3.98 37.294 14.72 76.524 23.015 113.749 23.015 37.305 0 76.61-8.32 113.97-23.105M382.589 805.995c18.957-11.845 43.04-13.925 62.653-3.205 48.507 26.51 103.453 42.17 154.643 42.17 51.23 0 106.235-15.7 154.765-42.245 19.555-10.695 43.59-8.64 62.495 3.17 21.15 13.21 48.2 1.395 57.58-21.71l60.055-147.9c21.72-53.5-6.255-114.23-61.035-132.485l-242.24-80.749a100 100 0 0 0-63.245 0L325.983 503.8c-54.765 18.255-82.742 78.96-61.044 132.455l60.041 148.03c9.371 23.11 36.462 34.92 57.609 21.71"/><path d="M849.885 288.599v141.367L631.51 357.168a100 100 0 0 0-63.25 0l-218.376 72.798V288.599a62.5 62.5 0 0 1 62.5-62.501h375.001a62.501 62.501 0 0 1 62.5 62.501"/></g><defs><clipPath id="a"><path fill="#fff" d="M0 0h1200v1200H0z"/></clipPath></defs></svg>

<svg width="1200" height="1200" viewBox="0 0 1200 1200" fill="none" xmlns="http://www.w3.org/2000/svg"><g clip-path="url(#clip0_788_1761)"><path fill-rule="evenodd" d="M506.135 100H693.635C710.895 100 724.885 113.991 724.885 131.25C724.885 148.509 710.895 162.5 693.635 162.5H506.135C488.875 162.5 474.884 148.509 474.884 131.25C474.884 113.991 488.875 100 506.135 100ZM713.97 946.865C758.97 929.065 812.945 933.815 858.26 950.8C914.185 971.76 979.985 975.7 1028.785 974.875C1066.435 974.24 1099.885 1003.67 1099.885 1041.33C1099.885 1072.11 1077.195 1098.075 1046.44 1099.355C996.795 1101.42 921.265 1099.405 858.265 1075.795C812.95 1058.815 758.97 1054.065 713.975 1071.865C676.62 1086.645 637.31 1094.97 600 1094.97C562.775 1094.97 523.56 1086.685 486.278 1071.97C441.154 1054.16 386.981 1058.985 341.531 1075.95C278.632 1099.43 203.119 1101.415 153.47 1099.35C122.701 1098.07 100 1072.095 100 1041.3C100 1003.65 133.424 974.225 171.067 974.87C219.876 975.7 285.688 971.8 341.556 950.935C386.99 933.965 441.141 929.145 486.251 946.955C523.545 961.675 562.775 969.97 600 969.97C637.305 969.97 676.61 961.65 713.97 946.865ZM382.589 805.995C401.546 794.15 425.629 792.07 445.242 802.79C493.749 829.3 548.695 844.96 599.885 844.96C651.115 844.96 706.12 829.26 754.65 802.715C774.205 792.02 798.24 794.075 817.145 805.885C838.295 819.095 865.345 807.28 874.725 784.175L934.78 636.275C956.5 582.775 928.525 522.045 873.745 503.79L631.505 423.041C610.98 416.198 588.79 416.198 568.26 423.041L325.983 503.8C271.218 522.055 243.241 582.76 264.939 636.255L324.98 784.285C334.351 807.395 361.442 819.205 382.589 805.995ZM849.885 288.599V429.966L631.51 357.168C610.98 350.325 588.785 350.325 568.26 357.168L349.884 429.966V288.599C349.884 272.023 356.469 256.125 368.19 244.405C379.911 232.684 395.808 226.098 412.384 226.098H787.385C803.96 226.098 819.855 232.684 831.58 244.405C843.3 256.125 849.885 272.023 849.885 288.599Z" fill="#1D1E23"/></g><defs><clipPath id="clip0_788_1761"><path width="24" fill="white" d="M0 0H1200V1200H0V0z"/></clipPath></defs></svg>
